neru-light-classic/22x22/actions/budget-edit.svg

<svg xmlns="http://www.w3.org/2000/svg" width="22" height="22" version="1.1">
 <defs>
  <style id="current-color-scheme" type="text/css">
   .ColorScheme-Text { color:#1e333d; } .ColorScheme-Highlight { color:#3fb7ff; }
  </style>
 </defs>
 <g style="fill:currentColor;opacity:0.3" class="ColorScheme-Text">
  <rect width="7" height="2" x="3" y="15" rx=".5" ry=".5"/>
  <rect width="7" height="2" x="3" y="11" rx=".5" ry=".5"/>
  <rect width="7" height="2" x="3" y="7" rx=".5" ry=".5"/>
  <rect width="7" height="2" x="3" y="3" rx=".5" ry=".5"/>
  <rect width="7" height="2" x="12" y="17" rx=".5" ry=".5"/>
  <rect width="7" height="2" x="12" y="13" rx=".5" ry=".5"/>
 </g>
 <g style="fill:currentColor" class="ColorScheme-Text">
  <rect width="7" height="2" x="3" y="17" rx=".5" ry=".5"/>
  <rect width="7" height="2" x="3" y="13" rx=".5" ry=".5"/>
  <rect width="7" height="2" x="3" y="9" rx=".5" ry=".5"/>
  <rect width="7" height="2" x="3" y="5" rx=".5" ry=".5"/>
  <rect width="7" height="2" x="12" y="15" rx=".5" ry=".5"/>
  <rect width="7" height="2" x="12" y="11" rx=".5" ry=".5"/>
 </g>
 <path style="fill:currentColor" class="ColorScheme-Text" d="M 17.806,3 C 17.715,3 17.623,3.0348 17.552,3.1055 L 16.855,3.8086 18.191,5.1445 18.894,4.4473 C 19.035,4.3059 19.035,4.0833 18.894,3.9419 L 18.058,3.1055 C 17.987,3.0348 17.897,3 17.806,3 Z M 16.325,4.3389 13,7.6641 V 9 H 14.336 L 17.661,5.6748 Z"/>
</svg>

<svg xmlns="http://www.w3.org/2000/svg" width="22" height="22"><defs><style id="current-color-scheme" type="text/css">.ColorScheme-Text{color:#1e333d}</style></defs><g class="ColorScheme-Text" fill="currentColor" opacity=".3"><rect width="7" height="2" x="3" y="15" rx=".5" ry=".5"/><rect width="7" height="2" x="3" y="11" rx=".5" ry=".5"/><rect width="7" height="2" x="3" y="7" rx=".5" ry=".5"/><rect width="7" height="2" x="3" y="3" rx=".5" ry=".5"/><rect width="7" height="2" x="12" y="17" rx=".5" ry=".5"/><rect width="7" height="2" x="12" y="13" rx=".5" ry=".5"/></g><g class="ColorScheme-Text" fill="currentColor"><rect width="7" height="2" x="3" y="17" rx=".5" ry=".5"/><rect width="7" height="2" x="3" y="13" rx=".5" ry=".5"/><rect width="7" height="2" x="3" y="9" rx=".5" ry=".5"/><rect width="7" height="2" x="3" y="5" rx=".5" ry=".5"/><rect width="7" height="2" x="12" y="15" rx=".5" ry=".5"/><rect width="7" height="2" x="12" y="11" rx=".5" ry=".5"/></g><path class="ColorScheme-Text" d="M17.806 3a.36.36 0 0 0-.254.106l-.697.703 1.336 1.335.703-.697a.355.355 0 0 0 0-.505l-.836-.837A.355.355 0 0 0 17.806 3zm-1.481 1.339L13 7.664V9h1.336l3.325-3.325z" fill="currentColor"/></svg>
